packages/tokens/icons/coveoGo/size24Px.svg

<svg viewBox="0 0 24 24" fill="none" xmlns="http://www.w3.org/2000/svg" width="1em" height="1em"><path d="M19.098 4.88519C17.3767 3.17379 15.1719 2.21233 12.909 2.00081C12.6382 1.98158 12.4835 2.30848 12.6769 2.50077L16.2936 6.09663C16.313 6.11586 16.2936 6.15432 16.255 6.13509C15.2106 5.38515 14.0308 4.96211 12.8123 4.84673C12.6189 4.8275 12.5222 5.05824 12.6576 5.19286L15.1332 7.65418C15.1525 7.67341 15.1332 7.71187 15.0945 7.69264C14.4176 7.23114 13.6439 6.96193 12.851 6.88503C12.7156 6.8658 12.6382 7.03886 12.7349 7.11578L16.9319 11.2885C17.0286 11.3847 17.1833 11.3077 17.164 11.1731C17.0866 10.3847 16.8158 9.61556 16.3516 8.94255C16.3323 8.92331 16.371 8.88485 16.3903 8.90408L18.7692 11.2693C18.9046 11.4039 19.1367 11.2885 19.1174 11.1154C19.0207 9.92324 18.5952 8.73103 17.8409 7.71187C17.8215 7.69264 17.8602 7.65418 17.8796 7.67341L21.4963 11.2693C21.6898 11.4616 22.0184 11.3077 21.9992 11.0193C21.7863 8.78872 20.8194 6.59659 19.098 4.88519ZM4.90194 4.88519C6.62326 3.17379 8.8281 2.21233 11.091 2.00081C11.3617 1.98158 11.5165 2.30848 11.3231 2.50077L7.70633 6.09663C7.68699 6.11586 7.70633 6.15432 7.74501 6.13509C8.78941 5.38515 9.9692 4.96211 11.1877 4.84673C11.3811 4.8275 11.4778 5.05824 11.3424 5.19286L8.86677 7.65418C8.84745 7.67341 8.86678 7.71187 8.90547 7.69264C9.58239 7.23114 10.356 6.96193 11.149 6.88503C11.2844 6.8658 11.3617 7.03886 11.265 7.11578L7.06809 11.3077C6.97139 11.4039 6.81666 11.327 6.83601 11.1923C6.91336 10.404 7.18414 9.63479 7.64832 8.96178C7.66766 8.94255 7.62897 8.90408 7.60962 8.92332L5.23072 11.2885C5.09534 11.4231 4.86324 11.3077 4.88259 11.1347C4.99863 9.92324 5.42413 8.73103 6.17841 7.71187C6.19776 7.69264 6.15907 7.65418 6.13974 7.67341L2.50368 11.2693C2.31027 11.4616 1.98148 11.3077 2.00082 11.0193C2.21356 8.78872 3.1806 6.59659 4.90194 4.88519ZM4.90194 19.1148C6.62326 20.8262 8.8281 21.7877 11.091 21.9992C11.3617 22.0184 11.5165 21.6915 11.3231 21.4992L7.70633 17.9033C7.68699 17.8841 7.70633 17.8456 7.74501 17.8649C8.78941 18.6148 9.9692 19.0379 11.1877 19.1532C11.3811 19.1725 11.4778 18.9417 11.3424 18.8071L8.86677 16.3458C8.84745 16.3266 8.86678 16.2881 8.90547 16.3073C9.58239 16.7688 10.356 17.038 11.149 17.1149C11.2844 17.1342 11.3617 16.9611 11.265 16.8842L7.06809 12.6922C6.97139 12.5961 6.81666 12.673 6.83601 12.8076C6.91336 13.596 7.18414 14.3652 7.64832 15.0382C7.66766 15.0574 7.62897 15.0959 7.60962 15.0767L5.23072 12.7115C5.09534 12.5769 4.86324 12.6922 4.88259 12.8653C4.99863 14.0767 5.42413 15.2689 6.17841 16.2881C6.19776 16.3073 6.15907 16.3458 6.13974 16.3266L2.50368 12.7307C2.31027 12.5384 1.98148 12.6922 2.00082 12.9807C2.21356 15.2112 3.1806 17.4034 4.90194 19.1148ZM19.098 19.1148C17.3767 20.8262 15.1719 21.7877 12.909 21.9992C12.6382 22.0184 12.4835 21.6915 12.6769 21.4992L16.2936 17.9033C16.313 17.8841 16.2936 17.8456 16.255 17.8649C15.2106 18.6148 14.0308 19.0379 12.8123 19.1532C12.6189 19.1725 12.5222 18.9417 12.6576 18.8071L15.1332 16.3458C15.1525 16.3265 15.1332 16.2881 15.0945 16.3073C14.4176 16.7688 13.6439 17.038 12.851 17.1149C12.7156 17.1342 12.6382 16.9611 12.7349 16.8842L16.9319 12.7115C17.0286 12.6153 17.1833 12.6922 17.164 12.8268C17.0866 13.6152 16.8158 14.3844 16.3516 15.0574C16.3323 15.0766 16.371 15.1151 16.3903 15.0959L18.7692 12.7307C18.9046 12.5961 19.1367 12.7115 19.1174 12.8845C19.0207 14.0767 18.5952 15.2689 17.8409 16.3073C17.8215 16.3265 17.8602 16.365 17.8796 16.3458L21.4963 12.7499C21.6898 12.5576 22.0184 12.7115 21.9992 12.9999C21.7863 15.2112 20.8194 17.4034 19.098 19.1148Z" fill="currentColor"/><path d="M10.4817 10.15C10.7273 10.15 10.94 10.1775 11.1197 10.2325C11.2993 10.2875 11.4515 10.3535 11.5762 10.4305C11.7008 10.5038 11.7998 10.5772 11.8732 10.6505C11.9465 10.7238 11.9997 10.777 12.0327 10.81L11.5542 11.2335C11.5065 11.1785 11.4497 11.1235 11.3837 11.0685C11.3177 11.0098 11.2407 10.9585 11.1527 10.9145C11.0647 10.8668 10.9657 10.8283 10.8557 10.799C10.7457 10.7697 10.621 10.755 10.4817 10.755C10.3093 10.755 10.148 10.7862 9.99766 10.8485C9.85099 10.9072 9.72266 10.9952 9.61266 11.1125C9.50266 11.2262 9.41649 11.3673 9.35416 11.536C9.29182 11.701 9.26066 11.8898 9.26066 12.1025C9.26066 12.3152 9.29182 12.5058 9.35416 12.6745C9.42016 12.8395 9.50816 12.9807 9.61816 13.098C9.73182 13.2117 9.86382 13.2997 10.0142 13.362C10.1682 13.4207 10.3332 13.45 10.5092 13.45C10.6852 13.45 10.8318 13.4353 10.9492 13.406C11.0665 13.3767 11.1618 13.3437 11.2352 13.307C11.3195 13.2667 11.3873 13.219 11.4387 13.164V12.4655H10.5257V11.91H12.1317V13.4335C12.0987 13.4665 12.0418 13.5178 11.9612 13.5875C11.8842 13.6572 11.7778 13.7287 11.6422 13.802C11.5102 13.8717 11.3488 13.934 11.1582 13.989C10.9675 14.0403 10.7457 14.066 10.4927 14.066C10.225 14.066 9.97016 14.0238 9.72816 13.9395C9.48982 13.8552 9.28082 13.7305 9.10116 13.5655C8.92516 13.4005 8.78399 13.197 8.67766 12.955C8.57499 12.7093 8.52366 12.427 8.52366 12.108C8.52366 11.8037 8.57499 11.5305 8.67766 11.2885C8.78399 11.0465 8.92516 10.8412 9.10116 10.6725C9.28082 10.5038 9.48799 10.3755 9.72266 10.2875C9.96099 10.1958 10.214 10.15 10.4817 10.15ZM12.6053 12.68C12.6053 12.471 12.642 12.2803 12.7153 12.108C12.7886 11.9357 12.8895 11.789 13.0178 11.668C13.1498 11.547 13.3038 11.4535 13.4798 11.3875C13.6558 11.3215 13.8465 11.2885 14.0518 11.2885C14.2571 11.2885 14.446 11.3215 14.6183 11.3875C14.7943 11.4535 14.9465 11.547 15.0748 11.668C15.2068 11.789 15.3095 11.9357 15.3828 12.108C15.4561 12.2803 15.4928 12.471 15.4928 12.68C15.4928 12.889 15.4561 13.0797 15.3828 13.252C15.3095 13.4207 15.2068 13.5655 15.0748 13.6865C14.9465 13.8075 14.7943 13.901 14.6183 13.967C14.446 14.0293 14.2571 14.0605 14.0518 14.0605C13.8465 14.0605 13.6558 14.0293 13.4798 13.967C13.3038 13.901 13.1498 13.8075 13.0178 13.6865C12.8895 13.5655 12.7886 13.4207 12.7153 13.252C12.642 13.0797 12.6053 12.889 12.6053 12.68ZM14.0518 13.4775C14.2791 13.4775 14.4551 13.4005 14.5798 13.2465C14.7045 13.0888 14.7668 12.8945 14.7668 12.6635C14.7668 12.4325 14.7045 12.24 14.5798 12.086C14.4551 11.932 14.2791 11.855 14.0518 11.855C13.8208 11.855 13.643 11.932 13.5183 12.086C13.3973 12.24 13.3368 12.4325 13.3368 12.6635C13.3368 12.8945 13.3973 13.0888 13.5183 13.2465C13.643 13.4005 13.8208 13.4775 14.0518 13.4775Z" fill="currentColor"/></svg>

<svg xmlns="http://www.w3.org/2000/svg" fill="none" viewBox="0 0 24 24" width="1em" height="1em"><path fill="currentColor" d="M19.098 4.885a10.08 10.08 0 0 0-6.189-2.884c-.27-.02-.426.307-.232.5l3.617 3.596c.019.019 0 .057-.039.038a6.995 6.995 0 0 0-3.443-1.288c-.193-.02-.29.211-.154.346l2.475 2.461c.02.02 0 .058-.038.039a4.8 4.8 0 0 0-2.244-.808c-.135-.02-.213.154-.116.23l4.197 4.174a.135.135 0 0 0 .232-.116 4.737 4.737 0 0 0-.812-2.23c-.02-.02.019-.058.038-.039l2.38 2.365c.135.135.367.02.347-.154a6.637 6.637 0 0 0-1.276-3.403c-.02-.02.02-.058.039-.039l3.616 3.596c.194.193.522.039.503-.25a9.973 9.973 0 0 0-2.901-6.134Zm-14.196 0a10.08 10.08 0 0 1 6.189-2.884c.27-.02.426.307.232.5L7.706 6.097c-.019.019 0 .057.039.038a6.995 6.995 0 0 1 3.443-1.288c.193-.02.29.211.154.346L8.867 7.654c-.02.02 0 .058.038.039a4.8 4.8 0 0 1 2.244-.808c.135-.02.213.154.116.23l-4.197 4.193a.135.135 0 0 1-.232-.116 4.737 4.737 0 0 1 .812-2.23c.02-.02-.019-.058-.038-.039L5.23 11.29c-.135.134-.367.019-.347-.154a6.839 6.839 0 0 1 1.295-3.423c.02-.02-.019-.058-.038-.039L2.504 11.27c-.194.193-.523.039-.503-.25a9.973 9.973 0 0 1 2.9-6.134Zm0 14.23a10.08 10.08 0 0 0 6.189 2.884c.27.02.426-.307.232-.5l-3.617-3.596c-.019-.019 0-.057.039-.038a6.994 6.994 0 0 0 3.443 1.288c.193.02.29-.211.154-.346l-2.475-2.461c-.02-.02 0-.058.038-.039a4.8 4.8 0 0 0 2.244.808c.135.02.213-.154.116-.23l-4.197-4.193a.135.135 0 0 0-.232.116c.077.788.348 1.557.812 2.23.02.02-.019.058-.038.039L5.23 12.71c-.135-.134-.367-.019-.347.154a6.839 6.839 0 0 0 1.295 3.423c.02.02-.019.058-.038.039L2.504 12.73c-.194-.193-.523-.039-.503.25a9.973 9.973 0 0 0 2.9 6.134Zm14.196 0a10.08 10.08 0 0 1-6.189 2.884c-.27.02-.426-.307-.232-.5l3.617-3.596c.019-.019 0-.057-.039-.038a6.994 6.994 0 0 1-3.443 1.288c-.193.02-.29-.211-.154-.346l2.475-2.461c.02-.02 0-.058-.038-.039a4.8 4.8 0 0 1-2.244.808c-.135.02-.213-.154-.116-.23l4.197-4.174a.135.135 0 0 1 .232.116 4.737 4.737 0 0 1-.812 2.23c-.02.02.019.058.038.039l2.38-2.365c.135-.135.367-.02.347.153a6.764 6.764 0 0 1-1.276 3.423c-.02.02.02.058.039.039l3.616-3.596c.194-.192.522-.039.503.25a9.973 9.973 0 0 1-2.901 6.115Zm-8.616-8.965c.245 0 .458.027.638.082a1.98 1.98 0 0 1 .753.419l.16.159-.479.423a1.474 1.474 0 0 0-.401-.319 1.35 1.35 0 0 0-.671-.159c-.173 0-.334.031-.484.093a1.065 1.065 0 0 0-.385.264c-.11.114-.197.255-.259.424a1.596 1.596 0 0 0-.093.566c0 .213.03.404.093.572.066.165.154.307.264.424.114.114.246.202.396.264.154.059.32.088.495.088.176 0 .323-.015.44-.044a1.42 1.42 0 0 0 .286-.099.67.67 0 0 0 .204-.143v-.698h-.913v-.556h1.606v1.524c-.033.033-.09.084-.17.154-.078.07-.184.14-.32.214a2.57 2.57 0 0 1-.484.187 2.58 2.58 0 0 1-.665.077c-.268 0-.523-.042-.765-.127a1.806 1.806 0 0 1-.627-.373 1.838 1.838 0 0 1-.423-.611 2.181 2.181 0 0 1-.154-.847c0-.304.051-.578.154-.82a1.9 1.9 0 0 1 .423-.616c.18-.168.387-.296.622-.385.238-.091.491-.137.759-.137Zm2.123 2.53c0-.209.037-.4.11-.572a1.31 1.31 0 0 1 .303-.44c.132-.121.286-.214.462-.28.176-.066.367-.1.572-.1.205 0 .394.034.566.1.176.066.329.159.457.28.132.121.235.268.308.44.073.172.11.363.11.572 0 .209-.037.4-.11.572a1.345 1.345 0 0 1-.764.715 1.655 1.655 0 0 1-.567.093c-.205 0-.396-.03-.572-.093a1.407 1.407 0 0 1-.462-.28 1.304 1.304 0 0 1-.303-.435 1.447 1.447 0 0 1-.11-.572Zm1.447.797c.227 0 .403-.077.528-.23a.91.91 0 0 0 .187-.583.888.888 0 0 0-.187-.578c-.125-.154-.3-.231-.528-.231-.231 0-.409.077-.534.231a.906.906 0 0 0-.181.578c0 .23.06.425.181.582.125.154.303.231.534.231Z"/></svg>
